icon-themes/breeze_svg/cmd/sc_distributeselection.svg

<svg viewBox="0 0 16 16" xmlns="http://www.w3.org/2000/svg">/&gt;<path d="m7 2-3 2 3 2zm2 0v4l3-2zm-5 4v1h-2v6h2v1h1v-1h2v-6h-2v-1zm7 0v1h-2v6h2v1h1v-1h2v-6h-2v-1zm-8 2h3v4h-3zm7 0h3v4h-3z" fill="#4d4d4d"/></svg>

<svg xmlns="http://www.w3.org/2000/svg" viewBox="0 0 16 16">
     />
 <path 
     style="fill:#4d4d4d" 
     d="M 7 2 L 4 4 L 7 6 L 7 2 z M 9 2 L 9 6 L 12 4 L 9 2 z M 4 6 L 4 7 L 2 7 L 2 13 L 4 13 L 4 14 L 5 14 L 5 13 L 7 13 L 7 7 L 5 7 L 5 6 L 4 6 z M 11 6 L 11 7 L 9 7 L 9 13 L 11 13 L 11 14 L 12 14 L 12 13 L 14 13 L 14 7 L 12 7 L 12 6 L 11 6 z M 3 8 L 6 8 L 6 12 L 3 12 L 3 8 z M 10 8 L 13 8 L 13 12 L 10 12 L 10 8 z "
     />
 </svg>
